icons/1_Primary/Cheaper Domains.svg

<svg width="1024" height="1024" viewBox="0 0 1024 1024" fill="none" xmlns="http://www.w3.org/2000/svg">
<g clip-path="url(#clip0_2_1797)">
<path d="M512 1024C794.77 1024 1024 794.77 1024 512C1024 229.23 794.77 0 512 0C229.23 0 0 229.23 0 512C0 794.77 229.23 1024 512 1024Z" fill="#73ADA4"/>
<path d="M270.06 505.21C269.78 539.73 259.31 559.82 238.93 565.48C235.53 566.33 232.14 567.18 228.46 567.74C211.46 570.29 197.33 566.33 186.3 555.86C175.83 546.24 169.61 532.66 167.06 515.4C166.464 511.563 166.18 507.683 166.21 503.8C165.36 480.6 167.06 465.32 171.59 457.96C176.97 448.91 183.47 442.68 191.4 438.96C195.93 436.96 204.98 434.72 219.13 432.17C236.67 429.06 252.52 442.07 266.38 471.17L234.38 477.96C228.15 468.91 221.65 464.66 215.38 465.51C211.869 466.18 208.625 467.851 206.04 470.32C197.347 478.013 193.974 488.51 195.92 501.81C196.2 502.94 196.49 504.64 196.77 506.62C200.17 522.18 208.09 529.54 220.82 528.69C233.27 527.84 239.5 520.48 239.21 506.34L270.06 505.21ZM262.14 422.58L297.79 420.32C298.07 433.9 298.64 448.05 300.05 462.48C311.05 452.86 320.99 447.2 329.48 445.79C339.95 444.09 348.48 451.17 355.48 467.01C359.72 476.63 362.84 488.8 364.82 502.95C367.65 521.95 369.35 537.75 370.2 550.49L342.47 554.49C341.9 544.3 341.06 535.25 339.92 527.89C336.81 505.54 332 494.78 326.05 495.63C320.1 496.48 313.6 503.27 306.53 516C308.79 529.58 311.34 543.73 314.45 557.88L286.72 563.54L262.14 422.58ZM399.94 493.58C405.03 504.58 413.24 509.71 424.56 508.58C435.03 507.73 441.56 501.22 443.56 489.06L475.25 479.72C471.85 514.81 457.99 534.05 433.37 537.44C425.73 538.57 417.24 538.01 407.37 535.74C388.69 528.38 377.37 510.56 373.37 482.54C373.09 480.28 372.8 477.45 372.52 474.62C369.69 441.8 382.71 420.86 411.85 411.24C440.15 406.71 459.39 423.97 469.29 463.31L399.94 493.58ZM403.05 451.14C399.415 456.859 397.818 463.639 398.52 470.38L440.12 451.7C433.89 443.49 426.82 439.82 419.46 440.95C412.1 442.08 406.45 445.5 403.05 451.16V451.14ZM498.69 405.3C503.535 403.441 508.563 402.1 513.69 401.3C537.46 397.9 554.69 408.09 565.19 431.86C570.57 444.31 574.24 458.74 576.19 475.72L581 515.62L551.29 521.85L550.16 516.47C512.24 520.47 491.3 514.21 487.34 497.23C486.77 494.68 486.49 492.99 486.21 491.85C484.21 477.7 488.47 468.36 499.21 462.99C504.418 460.518 509.966 458.836 515.67 458C523.421 456.931 531.306 457.411 538.87 459.41C536.87 446.11 535.76 439.04 535.47 438.47C533.21 433.38 527.55 431.11 518.78 431.68C511.42 432.25 505.2 439.32 500.1 453.19L469.82 452.91C474.36 426.54 484 411 498.69 405.32V405.3ZM528.4 476.89C520.19 478.02 516.23 480.89 516.52 485.1C516.8 491.33 526.71 495 545.95 496.1L542.27 476.29C537.638 476.034 532.991 476.241 528.4 476.91V476.89ZM594.33 379C620.08 375.32 638.19 383 648.33 401.92C650.715 406.131 652.343 410.727 653.14 415.5C655.69 434.18 640.69 450.02 607.87 462.75L619.19 514.82L589 521.05L567.74 385.8C576.352 382.644 585.261 380.366 594.33 379ZM621.49 415.5C620.64 410.97 612.44 408.14 597.16 406.73L602.82 433.33C616.12 426 622.63 420 621.5 415.51L621.49 415.5ZM697.04 451.15C702.13 462.15 710.34 467.28 721.66 466.15C732.13 465.3 738.66 458.79 740.66 446.63L772.35 437.29C768.95 472.38 755.09 491.62 730.47 495.01C722.83 496.14 714.34 495.58 704.47 493.31C685.79 485.95 674.47 468.13 670.47 440.11C670.19 437.85 669.9 435.02 669.62 432.19C666.79 399.37 679.81 378.43 708.95 368.81C737.25 364.28 756.49 381.54 766.39 420.88L697.04 451.15ZM700.15 408.71C696.467 414.422 694.965 421.27 695.92 428L737.52 409.32C731.29 401.11 724.22 397.44 716.86 398.57C709.22 399.66 703.56 403.06 700.16 408.72L700.15 408.71ZM783.91 490.49C777.4 443.49 770.91 406.17 764.39 378.72L796.39 371.36L796.96 382.11C811.39 369.94 826.96 363.11 843.65 361.17L850.72 388.62C831.72 391.45 819.03 397.11 812.52 406.16C807.99 412.39 807.43 426.53 810.52 448.89C811.934 459.077 814.197 470.96 817.31 484.54L783.91 490.49ZM389.47 662.82L388.05 555C413.8 558.68 428.8 565.47 433.61 575.66C435.29 579.135 436.437 582.843 437.01 586.66C438.099 594.113 437.22 601.721 434.46 608.73C430.5 620.94 415.5 639.05 389.47 662.82ZM407.86 582.74L408.14 612.45C417.194 605.657 421.437 599.713 420.87 594.62C420.31 589.25 416.07 585.57 407.86 582.74ZM445.78 613.87C444.37 601.7 446.06 590.95 450.31 581.61C455.4 570.29 463.61 563.78 474.64 562.37C486.52 560.67 495.3 562.37 501.24 567.46C506.05 571.7 510.86 579.63 514.82 591.51C516.448 595.802 517.588 600.263 518.22 604.81C519.63 613.86 518.22 622.07 514.54 628.86C509.16 638.76 499.54 644.42 485.96 646.12C473.51 647.53 463.89 645.55 457.1 640.46C451.16 635.09 447.19 626.32 445.78 613.87ZM489.64 588.4C485.4 585.57 481.72 584.16 478.32 584.72C474.32 585.29 470.96 588.4 468.42 594.34C466.259 598.824 465.377 603.817 465.87 608.77C466.44 613.01 468.42 616.98 471.81 620.94C475.49 625.47 479.45 627.45 483.41 626.88C487.94 626.31 491.9 623.2 495.01 617.83C498.12 612.74 499.25 607.93 498.41 603.12C497.84 597.74 494.73 592.93 489.64 588.4ZM529.82 555.58L532.08 564.35C538.02 556.43 543.68 551.9 549.08 551.35C555.87 550.5 562.38 555.35 568.32 566.35C571.43 557.3 576.81 552.2 584.17 551.35C587.586 550.807 591.082 551.098 594.36 552.2C603.7 554.46 609.92 567.48 613.36 591.53C614.888 601.934 615.74 612.426 615.91 622.94L600.35 625.77C599.78 622.37 599.5 619.54 598.94 616.43C594.94 588.13 589.89 574.27 583.66 575.12C577.72 575.97 576.02 585.87 578.57 604.55C579.7 611.62 581.12 619.83 583.38 629.45L565.47 632C564.9 624.08 564.34 617 563.47 610.78C561.47 597.78 558.94 588.43 555.26 583.05C553.26 580.22 551.26 578.81 549.32 579.05C545.64 579.62 541.68 584.99 537.72 595.46L543.66 637.34L525.83 639.34L511.68 561.24L529.82 555.58ZM632.54 536.9C635.783 535.522 639.221 534.661 642.73 534.35C659.14 532.09 670.73 538.88 677.82 555.29C681.5 563.78 684.05 573.68 685.46 585.29L688.57 612.45L668.2 616.69L667.63 613.01C641.88 615.84 627.45 611.31 624.63 599.71C624.443 598.463 624.159 597.233 623.78 596.03C622.37 586.41 625.48 579.9 632.83 576.22C636.415 574.534 640.23 573.389 644.15 572.82C649.434 571.978 654.837 572.268 660 573.67C658.59 564.62 657.74 559.8 657.74 559.24C656.04 555.84 652.36 554.15 646.42 554.43C641.33 554.71 637.08 559.52 633.69 569.14L613 568.88C616.12 551.33 622.63 540.58 632.54 536.9ZM652.91 585.9C647.25 586.75 644.7 588.45 644.7 591.56C644.98 595.8 651.49 598.35 664.79 599.2L662.24 585.62C659.13 585.405 656.006 585.482 652.91 585.85V585.9ZM693.66 520.54C694.677 520.256 695.753 520.256 696.77 520.54C701.3 521.39 704.69 523.65 706.67 527.61C707.618 529.532 708.039 531.672 707.89 533.81C707.74 535.948 707.026 538.008 705.82 539.78C703.27 544.02 699.88 546.29 695.92 546.57C691.68 546.85 688.28 545.16 685.17 541.48C683.82 539.97 682.934 538.101 682.62 536.1C682.28 533.378 682.771 530.617 684.03 528.18C686.86 523.32 690.26 521.05 693.66 520.49V520.54ZM710.66 552.54C712.66 572.347 714.357 591.87 715.75 611.11L695.66 615.92C695.09 607.71 694.53 599.23 693.11 590.74C691.7 580.27 689.43 569.52 686.88 558.74L710.66 552.54ZM729 524.17L731.55 532.94C740.884 524.167 748.807 519.357 755.32 518.51C761.55 517.66 766.32 520.21 770.32 525.87C776.26 534.64 780.51 549.64 783.62 571.14C784.75 578.78 785.62 587.27 786.45 596.89L765.23 600.57C765.35 590.825 764.782 581.084 763.53 571.42C762.124 561.807 759.867 555 756.76 551C754.76 548.45 752.76 547.32 750.53 547.6C746.53 548.17 742.32 553.54 737.8 564.01L743.74 605.89L724.22 608.15L709.79 530.05L729 524.17ZM788.14 593.78L794.37 571.14C807.37 577.08 817.29 579.63 823.8 578.78C826.226 578.397 828.488 577.317 830.31 575.67C832.57 573.67 833.42 571.67 833.14 569.44C832.57 566.04 827.76 564.06 818.71 562.93C805.41 561.52 795.79 555.86 789.85 546.52C788.075 543.757 786.827 540.688 786.17 537.47C785.32 531.53 787.58 525.59 793.24 520.21C798.054 515.683 805.694 512.57 816.16 510.87C824.975 509.689 833.888 509.404 842.76 510.02L838.76 531.24C830.55 528.98 824.05 528.13 819.52 528.69C817.245 528.938 815.086 529.822 813.29 531.24C811.03 532.94 809.89 534.64 810.18 536.62C810.47 538.6 812.44 540.3 816.12 542C818.667 543.133 823.477 544.547 830.55 546.24C836.49 547.65 841.02 549.35 843.85 551.05C845.933 552.4 847.695 554.189 849.015 556.291C850.335 558.393 851.179 560.758 851.49 563.22C853.19 571.99 850.08 580.76 842.44 589.22C839.33 592.9 833.95 595.16 826.88 596.29C817.59 598 804.58 597.17 788.17 593.78H788.14Z" fill="white"/>
</g>
<defs>
<clipPath id="clip0_2_1797">
<rect width="1024" height="1024" fill="white"/>
</clipPath>
</defs>
</svg>

<svg width="1024" height="1024" fill="none" xmlns="http://www.w3.org/2000/svg"><g clip-path="url(#a)"><path d="M512 1024c282.77 0 512-229.23 512-512S794.77 0 512 0 0 229.23 0 512s229.23 512 512 512Z" fill="#73ADA4"/><path d="M270.06 505.21c-.28 34.52-10.75 54.61-31.13 60.27-3.4.85-6.79 1.7-10.47 2.26-17 2.55-31.13-1.41-42.16-11.88-10.47-9.62-16.69-23.2-19.24-40.46a71.96 71.96 0 0 1-.85-11.6c-.85-23.2.85-38.48 5.38-45.84 5.38-9.05 11.88-15.28 19.81-19 4.53-2 13.58-4.24 27.73-6.79 17.54-3.11 33.39 9.9 47.25 39l-32 6.79c-6.23-9.05-12.73-13.3-19-12.45a18.563 18.563 0 0 0-9.34 4.81c-8.693 7.693-12.066 18.19-10.12 31.49.28 1.13.57 2.83.85 4.81 3.4 15.56 11.32 22.92 24.05 22.07 12.45-.85 18.68-8.21 18.39-22.35l30.85-1.13Zm-7.92-82.63 35.65-2.26c.28 13.58.85 27.73 2.26 42.16 11-9.62 20.94-15.28 29.43-16.69 10.47-1.7 19 5.38 26 21.22 4.24 9.62 7.36 21.79 9.34 35.94 2.83 19 4.53 34.8 5.38 47.54l-27.73 4c-.57-10.19-1.41-19.24-2.55-26.6-3.11-22.35-7.92-33.11-13.87-32.26-5.95.85-12.45 7.64-19.52 20.37 2.26 13.58 4.81 27.73 7.92 41.88l-27.73 5.66-24.58-140.96Zm137.8 71c5.09 11 13.3 16.13 24.62 15 10.47-.85 17-7.36 19-19.52l31.69-9.34c-3.4 35.09-17.26 54.33-41.88 57.72-7.64 1.13-16.13.57-26-1.7-18.68-7.36-30-25.18-34-53.2-.28-2.26-.57-5.09-.85-7.92-2.83-32.82 10.19-53.76 39.33-63.38 28.3-4.53 47.54 12.73 57.44 52.07l-69.35 30.27Zm3.11-42.44a30.063 30.063 0 0 0-4.53 19.24l41.6-18.68c-6.23-8.21-13.3-11.88-20.66-10.75-7.36 1.13-13.01 4.55-16.41 10.21v-.02Zm95.64-45.84a73.509 73.509 0 0 1 15-4c23.77-3.4 41 6.79 51.5 30.56 5.38 12.45 9.05 26.88 11 43.86l4.81 39.9-29.71 6.23-1.13-5.38c-37.92 4-58.86-2.26-62.82-19.24-.57-2.55-.85-4.24-1.13-5.38-2-14.15 2.26-23.49 13-28.86a58.003 58.003 0 0 1 16.46-4.99 59.163 59.163 0 0 1 23.2 1.41c-2-13.3-3.11-20.37-3.4-20.94-2.26-5.09-7.92-7.36-16.69-6.79-7.36.57-13.58 7.64-18.68 21.51l-30.28-.28c4.54-26.37 14.18-41.91 28.87-47.59v-.02Zm29.71 71.59c-8.21 1.13-12.17 4-11.88 8.21.28 6.23 10.19 9.9 29.43 11l-3.68-19.81a69.569 69.569 0 0 0-13.87.62v-.02ZM594.33 379c25.75-3.68 43.86 4 54 22.92a41.387 41.387 0 0 1 4.81 13.58c2.55 18.68-12.45 34.52-45.27 47.25l11.32 52.07-30.19 6.23-21.26-135.25a136.26 136.26 0 0 1 26.59-6.8Zm27.16 36.5c-.85-4.53-9.05-7.36-24.33-8.77l5.66 26.6c13.3-7.33 19.81-13.33 18.68-17.82l-.01-.01Zm75.55 35.65c5.09 11 13.3 16.13 24.62 15 10.47-.85 17-7.36 19-19.52l31.69-9.34c-3.4 35.09-17.26 54.33-41.88 57.72-7.64 1.13-16.13.57-26-1.7-18.68-7.36-30-25.18-34-53.2-.28-2.26-.57-5.09-.85-7.92-2.83-32.82 10.19-53.76 39.33-63.38 28.3-4.53 47.54 12.73 57.44 52.07l-69.35 30.27Zm3.11-42.44a28.268 28.268 0 0 0-4.23 19.29l41.6-18.68c-6.23-8.21-13.3-11.88-20.66-10.75-7.64 1.09-13.3 4.49-16.7 10.15l-.01-.01Zm83.76 81.78c-6.51-47-13-84.32-19.52-111.77l32-7.36.57 10.75c14.43-12.17 30-19 46.69-20.94l7.07 27.45c-19 2.83-31.69 8.49-38.2 17.54-4.53 6.23-5.09 20.37-2 42.73 1.414 10.187 3.677 22.07 6.79 35.65l-33.4 5.95ZM389.47 662.82 388.05 555c25.75 3.68 40.75 10.47 45.56 20.66a38.354 38.354 0 0 1 3.4 11 43.19 43.19 0 0 1-2.55 22.07c-3.96 12.21-18.96 30.32-44.99 54.09Zm18.39-80.08.28 29.71c9.054-6.793 13.297-12.737 12.73-17.83-.56-5.37-4.8-9.05-13.01-11.88Zm37.92 31.13c-1.41-12.17.28-22.92 4.53-32.26 5.09-11.32 13.3-17.83 24.33-19.24 11.88-1.7 20.66 0 26.6 5.09 4.81 4.24 9.62 12.17 13.58 24.05a61.291 61.291 0 0 1 3.4 13.3c1.41 9.05 0 17.26-3.68 24.05-5.38 9.9-15 15.56-28.58 17.26-12.45 1.41-22.07-.57-28.86-5.66-5.94-5.37-9.91-14.14-11.32-26.59Zm43.86-25.47c-4.24-2.83-7.92-4.24-11.32-3.68-4 .57-7.36 3.68-9.9 9.62a27.063 27.063 0 0 0-2.55 14.43c.57 4.24 2.55 8.21 5.94 12.17 3.68 4.53 7.64 6.51 11.6 5.94 4.53-.57 8.49-3.68 11.6-9.05 3.11-5.09 4.24-9.9 3.4-14.71-.57-5.38-3.68-10.19-8.77-14.72Zm40.18-32.82 2.26 8.77c5.94-7.92 11.6-12.45 17-13 6.79-.85 13.3 4 19.24 15 3.11-9.05 8.49-14.15 15.85-15a21.423 21.423 0 0 1 10.19.85c9.34 2.26 15.56 15.28 19 39.33a243.223 243.223 0 0 1 2.55 31.41l-15.56 2.83c-.57-3.4-.85-6.23-1.41-9.34-4-28.3-9.05-42.16-15.28-41.31-5.94.85-7.64 10.75-5.09 29.43 1.13 7.07 2.55 15.28 4.81 24.9L565.47 632c-.57-7.92-1.13-15-2-21.22-2-13-4.53-22.35-8.21-27.73-2-2.83-4-4.24-5.94-4-3.68.57-7.64 5.94-11.6 16.41l5.94 41.88-17.83 2-14.15-78.1 18.14-5.66Zm102.72-18.68a33.653 33.653 0 0 1 10.19-2.55c16.41-2.26 28 4.53 35.09 20.94 3.68 8.49 6.23 18.39 7.64 30l3.11 27.16-20.37 4.24-.57-3.68c-25.75 2.83-40.18-1.7-43-13.3a24.177 24.177 0 0 0-.85-3.68c-1.41-9.62 1.7-16.13 9.05-19.81a40.151 40.151 0 0 1 11.32-3.4 37.792 37.792 0 0 1 15.85.85c-1.41-9.05-2.26-13.87-2.26-14.43-1.7-3.4-5.38-5.09-11.32-4.81-5.09.28-9.34 5.09-12.73 14.71l-20.69-.26c3.12-17.55 9.63-28.3 19.54-31.98Zm20.37 49c-5.66.85-8.21 2.55-8.21 5.66.28 4.24 6.79 6.79 20.09 7.64l-2.55-13.58a49.896 49.896 0 0 0-9.33.23v.05Zm40.75-65.36a5.783 5.783 0 0 1 3.11 0c4.53.85 7.92 3.11 9.9 7.07a12.114 12.114 0 0 1-.85 12.17c-2.55 4.24-5.94 6.51-9.9 6.79-4.24.28-7.64-1.41-10.75-5.09a10.521 10.521 0 0 1-2.55-5.38 13.586 13.586 0 0 1 1.41-7.92c2.83-4.86 6.23-7.13 9.63-7.69v.05Zm17 32c2 19.807 3.697 39.33 5.09 58.57l-20.09 4.81c-.57-8.21-1.13-16.69-2.55-25.18-1.41-10.47-3.68-21.22-6.23-32l23.78-6.2ZM729 524.17l2.55 8.77c9.334-8.773 17.257-13.583 23.77-14.43 6.23-.85 11 1.7 15 7.36 5.94 8.77 10.19 23.77 13.3 45.27 1.13 7.64 2 16.13 2.83 25.75l-21.22 3.68c.12-9.745-.448-19.486-1.7-29.15-1.406-9.613-3.663-16.42-6.77-20.42-2-2.55-4-3.68-6.23-3.4-4 .57-8.21 5.94-12.73 16.41l5.94 41.88-19.52 2.26-14.43-78.1 19.21-5.88Zm59.14 69.61 6.23-22.64c13 5.94 22.92 8.49 29.43 7.64a12.648 12.648 0 0 0 6.51-3.11c2.26-2 3.11-4 2.83-6.23-.57-3.4-5.38-5.38-14.43-6.51-13.3-1.41-22.92-7.07-28.86-16.41a26.584 26.584 0 0 1-3.68-9.05c-.85-5.94 1.41-11.88 7.07-17.26 4.814-4.527 12.454-7.64 22.92-9.34a131.653 131.653 0 0 1 26.6-.85l-4 21.22c-8.21-2.26-14.71-3.11-19.24-2.55a12.185 12.185 0 0 0-6.23 2.55c-2.26 1.7-3.4 3.4-3.11 5.38.29 1.98 2.26 3.68 5.94 5.38 2.547 1.133 7.357 2.547 14.43 4.24 5.94 1.41 10.47 3.11 13.3 4.81a17.048 17.048 0 0 1 7.64 12.17c1.7 8.77-1.41 17.54-9.05 26-3.11 3.68-8.49 5.94-15.56 7.07-9.29 1.71-22.3.88-38.71-2.51h-.03Z" fill="#fff"/></g><defs><clipPath id="a"><path fill="#fff" d="M0 0h1024v1024H0z"/></clipPath></defs></svg>
